X:345
T:The wind that shakes the barley 2
R:Reel
O:Ireland
P:APB The Chieftains
S:Chieftains 8
B:O'Neill's 1518
Z:Transcription, chords:Mike Long
M:C|
L:1/8
K:D
dB|\
"D"~A2 (3(FED) AD (3(FED)|"G"BE (3(GFE) B2 dB|"D"AD (3(FED) A2 de|"A"~fded "G"BA:|
de|\
"D"~f2ef "G"~g2eg|"D"~fedf "A"e2de|"D"fdfd a2ab|"A"~afed "G"~BAde|
"D"~f2ef "G"~g2eg|"D"~fedf "A"edBA|"D"defg a2ab|"G"~afed ~BA|]
